lg/stimulus-icon.svg

<svg viewBox="0 0 256 256" version="1.1" xmlns="http://www.w3.org/2000/svg" preserveAspectRatio="xMidYMid" height="1em" width="1em">
  <g>
    <path d="M256,143.189333 L256,188.373333 L203.306667,188.373333 C198.88739,188.197426 194.556678,187.116034 190.581032,185.202061 L189.269333,184.533333 L176.469333,177.109333 C172.722042,175.174859 168.316944,175.045894 164.481945,176.722439 L163.669333,177.109333 L147.285333,186.709333 C145.837165,187.431098 144.921882,188.909935 144.921882,190.528 C144.921882,191.96628 145.645068,193.294553 146.822872,194.078886 L147.285333,194.346667 L181.76,214.570667 C185.639364,216.66946 189.905035,217.943351 194.289242,218.318868 L195.754667,218.410667 L256,218.410667 L256,248.533333 C255.955945,252.437367 252.95442,255.625008 249.134526,255.969308 L248.490667,256 L7.50933333,256 C3.65130007,255.979741 0.466744922,253.064935 0.0444481673,249.296891 L0,248.661333 L0,218.538667 L60.0746667,218.538667 C64.4819089,218.363696 68.8003673,217.282186 72.7622716,215.367612 L74.0693333,214.698667 L189.269333,147.029333 C193.169705,144.948588 197.444884,143.677708 201.838203,143.286908 L203.306667,143.189333 L256,143.189333 Z M256,67.7546667 L256,112.938667 L195.925333,112.938667 C191.520993,113.132234 187.206509,114.214593 183.239704,116.114997 L181.930667,116.778667 L66.7306667,184.490667 C62.8302952,186.571412 58.5551159,187.842292 54.1617966,188.233092 L52.6933333,188.330667 L0,188.330667 L0,143.146667 L60.0746667,143.146667 C64.479007,142.953099 68.7934911,141.870741 72.7602958,139.970336 L74.0693333,139.306667 L189.269333,71.5946667 C193.169705,69.513921 197.444884,68.2430416 201.838203,67.8522415 L203.306667,67.7546667 L256,67.7546667 Z M248.490667,-1.42108547e-14 C252.372805,-1.42108547e-14 255.576302,2.94751644 255.962148,6.74152155 L256,7.38133333 L256,37.504 L195.925333,37.504 C191.518091,37.6789709 187.199633,38.7604804 183.237728,40.675055 L181.930667,41.344 L66.7306667,109.013333 C62.8372152,111.111425 58.5590856,112.385035 54.1627799,112.761261 L52.6933333,112.853333 L0,112.853333 L0,67.6693333 L52.6933333,67.6693333 C57.1097373,67.8636934 61.4365198,68.9459343 65.4170132,70.8458428 L66.7306667,71.5093333 L79.5306667,78.976 C83.2779579,80.9104739 87.6830559,81.0394389 91.5180547,79.3628948 L92.3306667,78.976 L108.714667,69.3333333 C110.139589,68.6033239 111.035902,67.1370365 111.035902,65.536 C111.035902,64.1128564 110.327704,62.7961813 109.169558,62.0084476 L74.24,41.472 C70.3536405,39.3906804 66.0909544,38.1195468 61.7097651,37.7293436 L60.2453333,37.632 L0,37.632 L0,7.50933333 C0,3.56940757 3.03424385,0.338167423 6.89345124,0.0248932234 L7.50933333,-1.42108547e-14 L248.490667,-1.42108547e-14 Z" fill="#77E8B9"/>
  </g>
</svg>

<svg viewBox="0 0 256 256" xmlns="http://www.w3.org/2000/svg" preserveAspectRatio="xMidYMid" height="1em" width="1em">
  <path d="M256 143.19v45.183h-52.693a32.299 32.299 0 0 1-12.726-3.17l-1.312-.67-12.8-7.424a13.952 13.952 0 0 0-11.987-.387l-.813.387-16.384 9.6a4.267 4.267 0 0 0-.462 7.37l.462.268 34.475 20.224a32.085 32.085 0 0 0 12.53 3.748l1.465.092H256v30.122a7.553 7.553 0 0 1-6.865 7.436l-.644.031H7.509a7.553 7.553 0 0 1-7.465-6.703L0 248.66v-30.12h60.075a32.085 32.085 0 0 0 12.687-3.171l1.307-.67 115.2-67.669a32.896 32.896 0 0 1 12.57-3.742l1.468-.098H256Zm0-75.435v45.184h-60.075a32.683 32.683 0 0 0-12.685 3.176l-1.31.664-115.2 67.712a32.896 32.896 0 0 1-12.568 3.742l-1.469.098H0v-45.184h60.075a32.683 32.683 0 0 0 12.685-3.177l1.31-.663 115.2-67.712a32.896 32.896 0 0 1 12.568-3.743l1.469-.097H256ZM248.49 0a7.51 7.51 0 0 1 7.472 6.742l.038.64v30.122h-60.075a32.085 32.085 0 0 0-12.687 3.171l-1.307.669-115.2 67.67a32.299 32.299 0 0 1-12.568 3.747l-1.47.092H0V67.67h52.693a32.896 32.896 0 0 1 12.724 3.177l1.314.663 12.8 7.467a13.952 13.952 0 0 0 11.987.387l.813-.387 16.384-9.643a4.267 4.267 0 0 0 .455-7.325L74.24 41.472a32.683 32.683 0 0 0-12.53-3.743l-1.465-.097H0V7.509A7.51 7.51 0 0 1 6.893.025L7.51 0h240.982Z" fill="#77E8B9"/>
</svg>
